X: 40965
T: Trip To Dingle, The
R: polka
M: 2/4
K: Dmajor
|:D|D (3E/F/G/ AA|ABF2|Fd BA|B/d/B/A/ FD|B2 AF|DE FA|AB FE|D2 D:|
d|B2 AB|de fa|e2 fe|ed BA|B2 AB|de fa|ab (3fed|e2 ed|
B2 AB|de fz|e2 fe|ed BA|B2 AF|DE FA|AB FE|D2 D2||

